X:1
T: ES FREIT EIN WILDER WASSERMANN
N: E0001
O: Europa, Mitteleuropa, Deutschland, Schlesien, Hainau; Liegnitz
R: Sage, Maerchen -, Zauber - Lied
M: 2/4
L: 1/16
K: F
C2 | F2F2F2G2 | A2G2F4 |
A2A2A2B2 | c3BA2
F2 | f4fed2 | c4z2
c2 | d2B2G2B2 | c2A2F2
G2 | A2c2B2G2 | F4z2
c2 | d2B2G2B2 | c2A2F2
G2 | A2c2B2G2 | F4z2

@@@ Tune index: 3651
